flaticon/technology/macintosh.svg

<svg xmlns="http://www.w3.org/2000/svg" width="32" height="32" viewBox="0 0 24 24">
    <path d="M5.601562 6.398438C5.703125 6.398438 5.804688 6.359375 5.882812 6.28125L7.484375 4.683594C7.640625 4.527344 7.640625 4.273438 7.484375 4.117188 7.328125 3.960938 7.074219 3.960938 6.917969 4.117188L5.316406 5.71875C5.160156 5.875 5.160156 6.125 5.316406 6.28125 5.394531 6.359375 5.496094 6.398438 5.601562 6.398438zM5.601562 8.398438C5.703125 8.398438 5.804688 8.359375 5.882812 8.28125L6.683594 7.484375C6.839844 7.328125 6.839844 7.074219 6.683594 6.917969 6.527344 6.761719 6.273438 6.761719 6.117188 6.917969L5.316406 7.71875C5.160156 7.875 5.160156 8.125 5.316406 8.28125 5.394531 8.359375 5.496094 8.398438 5.601562 8.398438zM6.914062 6.117188C6.84375 6.191406 6.800781 6.296875 6.800781 6.398438 6.800781 6.503906 6.84375 6.609375 6.914062 6.683594 6.992188 6.757812 7.097656 6.800781 7.199219 6.800781 7.304688 6.800781 7.40625 6.757812 7.484375 6.683594 7.554688 6.609375 7.601562 6.507812 7.601562 6.398438 7.601562 6.292969 7.554688 6.191406 7.484375 6.117188 7.335938 5.96875 7.0625 5.96875 6.914062 6.117188zM7.71875 5.882812C7.796875 5.960938 7.898438 6 8 6 8.101562 6 8.203125 5.960938 8.28125 5.882812L9.484375 4.683594C9.640625 4.527344 9.640625 4.273438 9.484375 4.117188 9.328125 3.960938 9.074219 3.960938 8.917969 4.117188L7.71875 5.316406C7.5625 5.472656 7.5625 5.726562 7.71875 5.882812zM8.917969 6.117188L5.316406 9.71875C5.160156 9.875 5.160156 10.125 5.316406 10.28125 5.394531 10.359375 5.496094 10.398438 5.601562 10.398438 5.703125 10.398438 5.804688 10.359375 5.882812 10.28125L9.484375 6.683594C9.640625 6.527344 9.640625 6.273438 9.484375 6.117188 9.328125 5.960938 9.074219 5.960938 8.917969 6.117188zM9.714844 5.316406C9.644531 5.390625 9.601562 5.496094 9.601562 5.601562 9.601562 5.703125 9.644531 5.808594 9.714844 5.882812 9.792969 5.957031 9.894531 6 10 6 10.105469 6 10.207031 5.957031 10.285156 5.882812 10.355469 5.808594 10.398438 5.703125 10.398438 5.601562 10.398438 5.496094 10.355469 5.390625 10.285156 5.316406 10.136719 5.167969 9.867188 5.167969 9.714844 5.316406zM10.917969 4.117188L10.515625 4.515625C10.359375 4.671875 10.359375 4.925781 10.515625 5.082031 10.59375 5.160156 10.699219 5.199219 10.800781 5.199219 10.902344 5.199219 11.003906 5.160156 11.082031 5.082031L11.484375 4.683594C11.640625 4.527344 11.640625 4.273438 11.484375 4.117188 11.328125 3.960938 11.074219 3.960938 10.917969 4.117188zM10.917969 4.117188"/>
    <path d="M 20.742188 0 L 3.257812 0 C 2.34375 0 1.601562 0.742188 1.601562 1.65625 L 1.601562 18.34375 C 1.601562 19.238281 2.3125 19.964844 3.199219 19.996094 L 3.199219 24 L 20.800781 24 L 20.800781 19.996094 C 21.6875 19.964844 22.398438 19.238281 22.398438 18.34375 L 22.398438 1.65625 C 22.398438 0.742188 21.65625 0 20.742188 0 Z M 20 23.199219 L 4 23.199219 L 4 20 L 20 20 Z M 21.601562 18.34375 C 21.601562 18.816406 21.214844 19.199219 20.742188 19.199219 L 3.257812 19.199219 C 2.785156 19.199219 2.398438 18.816406 2.398438 18.34375 L 2.398438 1.65625 C 2.398438 1.183594 2.785156 0.800781 3.257812 0.800781 L 20.742188 0.800781 C 21.214844 0.800781 21.601562 1.183594 21.601562 1.65625 Z M 21.601562 18.34375"/>
    <path d="M19.601562 22.800781L19.601562 20.398438 14.398438 20.398438 14.398438 22.800781zM18.800781 21.199219L18.800781 22 18 22 18 21.199219zM15.199219 22L15.199219 21.199219 17.199219 21.199219 17.199219 22zM18.851562 2L5.148438 2C4.074219 2 3.199219 2.875 3.199219 3.949219L3.199219 12.453125C3.199219 13.527344 4.074219 14.398438 5.148438 14.398438L18.851562 14.398438C19.925781 14.398438 20.800781 13.527344 20.800781 12.453125L20.800781 3.949219C20.800781 2.875 19.925781 2 18.851562 2zM20 12.453125C20 13.085938 19.484375 13.601562 18.851562 13.601562L5.148438 13.601562C4.515625 13.601562 4 13.085938 4 12.453125L4 3.949219C4 3.316406 4.515625 2.800781 5.148438 2.800781L18.851562 2.800781C19.484375 2.800781 20 3.316406 20 3.949219zM4 18.800781L6.398438 18.800781 6.398438 16.800781 4 16.800781zM4.800781 17.601562L5.601562 17.601562 5.601562 18 4.800781 18zM19.601562 15.601562L16 15.601562 16 16.398438 12.398438 16.398438 12.398438 17.199219 16 17.199219 16 18 19.601562 18 19.601562 17.199219 20.398438 17.199219 20.398438 16.398438 19.601562 16.398438zM18.800781 17.199219L16.800781 17.199219 16.800781 16.398438 18.800781 16.398438zM18.800781 17.199219"/>
</svg>

<svg xmlns="http://www.w3.org/2000/svg" width="32" height="32" viewBox="0 0 24 24">
    <path d="M5.602 6.398c.101 0 .203-.039.28-.117l1.602-1.597a.4.4 0 0 0-.566-.567L5.316 5.72a.399.399 0 1 0 .285.68zm0 0M5.602 8.398c.101 0 .203-.039.28-.117l.802-.797a.4.4 0 0 0-.567-.566l-.8.8a.399.399 0 1 0 .285.68zm0 0M6.914 6.117a.42.42 0 0 0-.113.281c0 .106.043.211.113.286A.423.423 0 0 0 7.2 6.8a.416.416 0 0 0 .285-.117.419.419 0 0 0 .118-.286.417.417 0 0 0-.118-.28.42.42 0 0 0-.57 0zm0 0M7.719 5.883a.396.396 0 0 0 .562 0l1.203-1.2a.4.4 0 0 0-.566-.566l-1.2 1.2a.4.4 0 0 0 0 .566zm0 0M8.918 6.117L5.316 9.72a.399.399 0 1 0 .566.563l3.602-3.598a.4.4 0 0 0-.566-.567zm0 0M9.715 5.316a.423.423 0 0 0-.113.286.42.42 0 0 0 .113.28c.078.075.18.118.285.118a.416.416 0 0 0 .285-.117.42.42 0 0 0 .113-.281.423.423 0 0 0-.113-.286.42.42 0 0 0-.57 0zm0 0M10.918 4.117l-.402.399a.4.4 0 0 0 .566.566l.402-.398a.4.4 0 0 0-.566-.567zm0 0"/>
    <path d="M20.742 0H3.258c-.914 0-1.656.742-1.656 1.656v16.688c0 .894.71 1.62 1.597 1.652V24h17.602v-4.004a1.655 1.655 0 0 0 1.597-1.652V1.656C22.398.742 21.656 0 20.742 0zM20 23.2H4V20h16zm1.602-4.856a.859.859 0 0 1-.86.855H3.258a.859.859 0 0 1-.86-.855V1.656c0-.472.387-.855.86-.855h17.484c.473 0 .86.383.86.855zm0 0"/>
    <path d="M19.602 22.8v-2.402h-5.204v2.403zm-.801-1.6v.8H18v-.8zm-3.602.8v-.8h2v.8zm0 0M18.852 2H5.148C4.074 2 3.2 2.875 3.2 3.95v8.503c0 1.074.875 1.945 1.95 1.945h13.703c1.074 0 1.949-.87 1.949-1.945V3.95C20.8 2.875 19.926 2 18.85 2zM20 12.453a1.15 1.15 0 0 1-1.148 1.149H5.148A1.15 1.15 0 0 1 4 12.453V3.95a1.15 1.15 0 0 1 1.148-1.148h13.704A1.15 1.15 0 0 1 20 3.949zm0 0M4 18.8h2.398v-2H4zm.8-1.198h.802V18H4.8zm0 0M19.602 15.602H16v.796h-3.602v.801H16V18h3.602v-.8h.796v-.802h-.796zm-.801 1.597h-2v-.8h2zm0 0"/>
</svg>
